usr/share/icons/big-icons/symbolic/status/nvidia-card-symbolic.svg

<svg xmlns="http://www.w3.org/2000/svg" width="16" height="16" version="1">
 <path style="fill:#363636" d="M 1.6347,7.1666 C 1.6347,7.1666 3.1127,4.7474 6.001,4.4971 V 3.6195 C 2.8019,3.9105 0,6.9818 0,6.9818 0,6.9818 1.6006,12.124 6.001,12.594 V 11.661 C 2.7718,11.2 1.6347,7.1658 1.6347,7.1658 Z M 6.001,9.8059 V 10.66 C 3.5604,10.167 2.8515,7.2909 2.8515,7.2909 2.8515,7.2909 4.0548,5.8192 6.0011,5.5806 V 6.5181 C 5.9999,6.5181 5.9991,6.5177 5.9981,6.5177 4.9766,6.3787 4.1471,7.4606 4.1471,7.4606 4.1471,7.4606 4.6259,9.2813 6.0018,9.805 M 6.0018,2 V 3.6188 C 6.0957,3.6107 6.1581,3.6038 6.2525,3.6001 9.8895,3.4612 12.26,6.9813 12.26,6.9813 12.26,6.9813 9.5375,10.732 6.7019,10.732 6.442,10.732 6.2303,10.706 6.0018,10.66 V 11.661 C 6.1971,11.689 6.3683,11.705 6.5797,11.705 9.2182,11.705 11.127,10.178 12.974,8.3701 13.281,8.6478 14.535,9.325 14.793,9.6207 13.036,11.288 8.9417,12.632 6.6201,12.632 6.3963,12.632 6.2129,12.617 6.0017,12.593 V 14 H 16 V 2 H 6.0017 Z M 6.0018,5.5807 V 4.4965 C 6.0947,4.4902 6.1568,4.4835 6.2525,4.4801 8.8678,4.3869 10.584,7.0277 10.584,7.0277 10.584,7.0277 8.7306,9.9456 6.7433,9.9456 6.4573,9.9456 6.2324,9.8933 6.0016,9.805 V 6.5182 C 7.0198,6.6576 7.1932,7.1675 7.8057,8.3238 L 9.1672,7.0228 C 9.1672,7.0228 8.1729,5.5454 6.4978,5.5454 6.3157,5.5453 6.173,5.5599 6.0019,5.5805"/>
</svg>

<svg xmlns="http://www.w3.org/2000/svg" width="16" height="16" version="1">
<path d="M1.635 7.167S3.113 4.747 6 4.497V3.62c-3.199.29-6 3.362-6 3.362s1.6 5.142 6.001 5.612v-.933c-3.23-.461-4.366-4.495-4.366-4.495ZM6 9.806v.854c-2.44-.493-3.15-3.37-3.15-3.37S4.054 5.82 6 5.58v.938h-.003c-1.021-.14-1.85.943-1.85.943s.478 1.82 1.854 2.344m0-7.805v1.619c.094-.008.156-.015.25-.019 3.638-.139 6.008 3.381 6.008 3.381s-2.722 3.751-5.558 3.751c-.26 0-.472-.026-.7-.072v1.001c.195.028.366.044.578.044 2.638 0 4.547-1.527 6.394-3.335.307.278 1.561.955 1.819 1.25-1.757 1.668-5.851 3.012-8.173 3.012-.224 0-.407-.015-.618-.039V14H16V2zm0 3.58V4.498c.093-.007.155-.013.25-.017 2.616-.093 4.332 2.548 4.332 2.548S8.73 9.947 6.743 9.947c-.287 0-.512-.053-.742-.141V6.518c1.018.14 1.191.65 1.804 1.806l1.361-1.301s-.994-1.478-2.67-1.478c-.181 0-.324.015-.495.035" style="fill:#fcfcfc"/>
</svg>
